public/assets/standards/sci-ai/infra-icon.svg

<svg width="26" height="24" viewBox="0 0 26 24" fill="none" xmlns="http://www.w3.org/2000/svg">
<path d="M14.9026 23.3999H1.2998V19.2212C1.2998 15.408 4.35139 12.3262 8.12707 12.3262C11.9027 12.3262 14.9543 15.408 14.9543 19.2212V23.3999H14.9026Z" fill="#A5C352"/>
<path d="M11.8512 8.93094C12.627 8.40859 13.2994 7.72954 13.7131 6.89378C14.2304 5.79685 14.1269 4.33428 13.1959 3.49853C12.989 3.34182 12.7304 3.18512 12.4718 3.08065C12.2649 2.97618 12.0063 2.92394 11.7477 2.97618C11.3857 3.02841 10.7133 3.34182 10.6099 3.7597C10.5581 4.07311 10.8685 4.54322 11.1788 4.28205C11.696 3.81193 11.5408 2.92394 11.1788 2.4016C10.8167 1.87925 10.1444 1.46137 9.52371 1.30466C8.541 1.04349 7.19623 1.25243 6.62729 2.14042C6.26524 2.61054 6.05836 3.13288 6.11008 3.7597C6.1618 4.22981 6.67901 4.54322 6.98934 4.02087C7.24794 3.49853 6.4204 3.18511 6.05835 3.13288C4.35154 2.87171 3.36883 4.90886 3.47227 6.37143C3.57572 7.46836 4.2481 8.46082 5.07565 9.08764" stroke="#003834" stroke-width="0.5292" stroke-miterlimit="10" stroke-linecap="round"/>
<path d="M8.48868 11.5948C10.4882 11.5948 12.1092 9.9578 12.1092 7.93841C12.1092 5.91902 10.4882 4.28198 8.48868 4.28198C6.48912 4.28198 4.86816 5.91902 4.86816 7.93841C4.86816 9.9578 6.48912 11.5948 8.48868 11.5948Z" fill="#006D68"/>
<path d="M13.5059 7.20728H24.9363V20.7361H14.9023" stroke="#003834" stroke-width="0.5292" stroke-miterlimit="10" stroke-linecap="round"/>
<path d="M10.3506 17.2362L13.4539 13.1619L17.6951 17.6541L21.057 12.3262" stroke="#003834" stroke-width="0.5292" stroke-miterlimit="10" stroke-linecap="round"/>
<path d="M21.4707 13.2142L22.35 10.2368L20.126 12.3784L21.4707 13.2142Z" fill="#003834"/>
</svg>

<svg xmlns="http://www.w3.org/2000/svg" width="26" height="24" fill="none" viewBox="0 0 26 24"><path fill="#a5c352" d="M14.903 23.4H1.3v-4.18c0-3.813 3.051-6.895 6.827-6.895s6.827 3.082 6.827 6.895v4.18z"/><path stroke="#003834" stroke-linecap="round" stroke-miterlimit="10" stroke-width=".529" d="M11.851 8.93c.776-.521 1.448-1.2 1.862-2.036.517-1.097.414-2.56-.517-3.395a3.3 3.3 0 0 0-.724-.418 1.13 1.13 0 0 0-.724-.105c-.362.052-1.035.366-1.138.784-.052.313.258.783.569.522.517-.47.362-1.358 0-1.88-.362-.523-1.035-.94-1.655-1.097-.983-.262-2.328-.053-2.897.835-.362.47-.569.993-.517 1.62.052.47.569.783.88.26.258-.521-.57-.835-.932-.887-1.706-.261-2.69 1.776-2.586 3.238.104 1.097.776 2.09 1.604 2.717"/><path fill="#006d68" d="M8.489 11.595c2 0 3.62-1.637 3.62-3.657s-1.62-3.656-3.62-3.656-3.62 1.637-3.62 3.656 1.62 3.657 3.62 3.657"/><path stroke="#003834" stroke-linecap="round" stroke-miterlimit="10" stroke-width=".529" d="M13.506 7.207h11.43v13.53H14.902"/><path stroke="#003834" stroke-linecap="round" stroke-miterlimit="10" stroke-width=".529" d="m10.35 17.236 3.104-4.074 4.241 4.492 3.362-5.328"/><path fill="#003834" d="m21.47 13.214.88-2.977-2.224 2.141z"/></svg>
